material/.icons/material/puzzle-outline.svg

<svg xmlns="http://www.w3.org/2000/svg" viewBox="0 0 24 24"><path d="M22 13.5c0 1.76-1.3 3.22-3 3.46V20a2 2 0 01-2 2h-3.8v-.3a2.7 2.7 0 00-2.7-2.7c-1.5 0-2.7 1.21-2.7 2.7v.3H4a2 2 0 01-2-2v-3.8h.3C3.79 16.2 5 15 5 13.5c0-1.5-1.21-2.7-2.7-2.7H2V7a2 2 0 012-2h3.04c.24-1.7 1.7-3 3.46-3s3.22 1.3 3.46 3H17a2 2 0 012 2v3.04c1.7.24 3 1.7 3 3.46M17 15h1.5a1.5 1.5 0 001.5-1.5 1.5 1.5 0 00-1.5-1.5H17V7h-5V5.5A1.5 1.5 0 0010.5 4 1.5 1.5 0 009 5.5V7H4v2.12c1.76.68 3 2.38 3 4.38s-1.25 3.7-3 4.38V20h2.12a4.7 4.7 0 014.38-3c2 0 3.7 1.25 4.38 3H17v-5z"/></svg>

<?xml version="1.0" encoding="UTF-8"?><!DOCTYPE svg PUBLIC "-//W3C//DTD SVG 1.1//EN" "http://www.w3.org/Graphics/SVG/1.1/DTD/svg11.dtd"><svg xmlns="http://www.w3.org/2000/svg" xmlns:xlink="http://www.w3.org/1999/xlink" version="1.1" id="mdi-puzzle-outline" width="24" height="24" viewBox="0 0 24 24"><path d="M22,13.5C22,15.26 20.7,16.72 19,16.96V20A2,2 0 0,1 17,22H13.2V21.7A2.7,2.7 0 0,0 10.5,19C9,19 7.8,20.21 7.8,21.7V22H4A2,2 0 0,1 2,20V16.2H2.3C3.79,16.2 5,15 5,13.5C5,12 3.79,10.8 2.3,10.8H2V7A2,2 0 0,1 4,5H7.04C7.28,3.3 8.74,2 10.5,2C12.26,2 13.72,3.3 13.96,5H17A2,2 0 0,1 19,7V10.04C20.7,10.28 22,11.74 22,13.5M17,15H18.5A1.5,1.5 0 0,0 20,13.5A1.5,1.5 0 0,0 18.5,12H17V7H12V5.5A1.5,1.5 0 0,0 10.5,4A1.5,1.5 0 0,0 9,5.5V7H4V9.12C5.76,9.8 7,11.5 7,13.5C7,15.5 5.75,17.2 4,17.88V20H6.12C6.8,18.25 8.5,17 10.5,17C12.5,17 14.2,18.25 14.88,20H17V15Z" /></svg>
